**kern	**text
*clefG2	*
*k[b-]	*
*M4/4	*
*MM120	*
=1	=1
1r	.
=2	=2
1r	.
=3	=3
1r	.
=4	=4
1r	.
=5	=5
1r	.
=6	=6
8dL	- ろ
16.eL	o り
32e'JJk	i す
8fL	- く
8gJ	u じゃ
8.aL	a も
[16dJk	n の
32dKLL]	.
16.d'J	o t
[8aJ	- た
=7	=7
8aL]	.
8dJ	a り
16aLL	i な
16aJ	a k
8dJ	- く
8aL	u な
16b-L	a あ
16aJJ	a ちゃ
16a'LL	a -
16f	- あ
16f'	a t
[16dJJ	- た
=8	=8
32dKLL]	.
16.d	a sh
48gL	- しぇ
[48b-JJ	e_hh
12b-J_	.
8b-L]	.
16dL	- あ
16dJJ	a り
16dKL	i あ
8d'	a ま
[16dJk	- て
8dL]	.
8d'J	e hh
=9	=9
16dKL	- わ
8d'	a ら
[16eJk	- ちゃ
8eL]	.
8dJ	a く
8.eL	u ら
16eJk	a い
16dKL	i は
8.d'J	a hh
=10	=10
16dLL	- な
16dJ	a ん
8eJ	n も
16fLL	n な
16f	a い
16g	i な
16g'JJ	a -
8.aL	- ん
16dJk	n て
8dL	e -
[8aJ	- い
=11	=11
8aL]	.
16dL	i い
16d'JJ	i t
8aL	- た
8dJ	a あ
8aL	a て
16b-L	e しょ
16aJJ	o お
16a'LL	o -
16f	- が
16f	a ん
[16dJJ	n な
=12	=12
32dKLL]	.
16.d	i sh
48gL	- しぇ
[48b-JJ	e_hh
12b-J_	.
8b-L]	.
8d'J	- お
16dKL	- て
8d'	e あ
[16dJk	- げ
8d]	.
16r	.
16d	- で
=13	=13
8fL	e は
16dL	a い
[16fJJ	i ふぁ
8fL]	.
8d'J	i hh
16aKL	- ま
8a	a え
16b-Jk	n な
16ddLL	a -
16a	- ら
16a	a -
[16aJJ	- え
=14	=14
8aL]	.
8dJ	e で
32.aLLL	e あ
[64aK	a t
32aJJJ]	.
32r	.
8d	- と
8aL	o に
16aL	i つ
[16aJJ	u ず
16aKL]	.
8d	u い
[16aJk	i た
=15	=15
16aLL]	.
16ccJ	a t
8dJ	- て
8aL	e つ
8dJ	u ま
8aL	a ん
16b-L	n ね
[16aJJ	e え
16a]	.
16r	.
8r	.
=16	=16
16aLL	- ゆ
16a	u め
16a	e お
16dJJ	o か
8aL	a た
16dL	a れ
16d'JJ	e -
8.aL	- お
[16dJk	o え
8dL]	.
8dJ	e が
=17	=17
16ccLL	a こ
16cc	o の
16cc	o ま
16ccJJ	a ち
8ccL	i の
8b-J	o す
8aL	u た
16aL	a ん
16ccJJ	n だ
16ee'KL	a d
8.aJ	- ど
=18	=18
16fLL	- た
16f	a d
16d	- だ
16dJJ	a m
16fLL	n み
16fJ	i -
8dJ	- て
16.fLL	e た
32fJJk	a い
16r	.
[16f	- だ
32fKLL]	.
16.f'J	a k
[8fJ	- け
=19	=19
8fL]	.
16dL	e な
16dJJ	a ん
16fLL	n て
16f	e の
16f	o わ
16f'JJ	a -
16gLL	- う
16g	u s
16f	- そ
[16gJJ	o で
8g]	.
8r	.
=20	=20
8dL	- そ
8e	o ろ
8f	o そ
8gJ	o ろ
8aL	n ま
16aL	a い
[16dJJ	i く
16d]	.
16r	.
[8cc	- ちょ
=21	=21
8ccL]	.
8b-J	o お
[8.aL	o だ
32aLL]	.
32aJJJ	a い
8a'L	i -
8dd	- ど
8g	o せ
8fJ	e な
=22	=22
4f	a ら
4f'	a -
4c	- も
4c'	u_hh
=23	=23
12aL	- あ
12a	a と
12aJ	o も
8aL	o ど
8gJ	o り
4g	i も
4g'	o_hh
=24	=24
8aL	- で
8aJ	e き
8aL	i な
16ccL	a い
16cc'JJ	i k
8eL	- く
8eJ	u ら
24eLL	a い
24eJJ	i -
24r	.
[8dd	- ど
=25	=25
8ddL]	.
8ccJ	o に
16gLL	i か
16gJ	a s
8b-J	- さ
4a	a せ
4g	e て
=26	=26
16dLL	- ま
16c	a だ
16c	a ま
*clefF4	*
16B-JJ	a だ
16AKL	a は
8d'	a ま
16B-Jk	- て
8dL	e い
*clefG2	*
16cL	i き
16eJJ	i た
16eLL	a い
16B-	i な
16B-	a ん
16eJJ	n か
=27	=27
16r	.
16cLL	- ま
16c	a る
16cJJ	u で
16cLL	e こ
16c	o い
16B-	i し
16B-JJ	i て
8cL	e る
16eL	u み
16dJJ	i た
16cKL	a い
*clefF4	*
8A-X'	i -
16B-Jk	- す
=28	=28
12dL	u き
12c	i に
12B-J	i い
*clefG2	*
12dL	i な
12c	a ちゃ
12B-J	a あ
4f'	a た
8r	.
8c	- つ
=29	=29
16aKL	u て
8.d'J	e さ
4r	.
8aL	- な
8g	a ら
8f	a こ
8dJ	o の
=30	=30
8ddL	o ま
[8ddJ	a ま
16ddKL]	.
8.dd'J	a_hh
8r	.
8ddL	- き
8dd	i み
8ccJ	i お
=31	=31
8ccL	o つ
8cc'	u -
8b-	- れ
8b-'J	e t
8aL	- て
8g	e の
8f	o ぞ
8dJ	o む
=32	=32
8dd	u な
4.dd'	a ら
4r	.
8dL	- ど
[8dJ	o こ
=33	=33
8dL]	.
8fJ	o ま
4d	a で
8aL	e も
8gJ	o う
16fLL	u え
16f	n ん
16d	n だ
16dJJ	a い
=34	=34
8dd	i わ
4.dd'	a な
8r	.
8ddL	- ほ
8dd	o し
8ccJ	i が
=35	=35
8ccL	a あ
8cc'J	a t
4ff	- て
16eeLL	e ば
16ee'J	a k
8ccJ	- か
8gL	a り
[8aJ	i で
=36	=36
8aL]	.
8a'J	e -
32.ccLLL	- け
[64ccK	e k
32ccJJJ]	.
32r	.
[8a	- こ
8aL]	.
8a'J	o -
32.ccLLL	- け
[64ccK	e k
32ccJJJ]	.
32r	.
[8a	- こ
=37	=37
8aL]	.
8a'J	o -
8r	.
16fLL	- も
16fJJ	o し
8fL	i か
8g	a な
8a	a う
8fJ	u な
=38	=38
4f	a ら
8f'L	a -
16fL	- こ
16fJJ	o の
8fL	o さ
8ccJ	a き
4cc	i の
=39	=39
8ee'L	o -
8f	- せ
8f	e か
8ccJ	a い
8ccL	i お
8ee'J	o -
16dLL	- し
16dJ	i り
[8ddJ	i た
=40	=40
8ddL]	.
8d	a あ
8dd	a あ
8dJ	a あ
[8ddL	a あ
32ddKL]	.
16.dd'JJ	a い
16dLL	- い
16dJ	i き
[8ddJ	i た
=41	=41
8ddL]	.
8d	a あ
8dd	a あ
8dJ	a あ
8d'L	i -
*clefF4	*
16A-XL	- れ
32A-L	e でぃ
32A-JJJ	i す
16AnKL	u て
8A-X	e でぃ
[16F#XJk	i -
=42	=42
4F#]	.
4r	.
2r	.
=43	=43
1r	.
=44	=44
1r	.
=45	=45
2r	.
4r	.
8r	.
*clefG2	*
16cLL	- は
16e-XJJ	a -
=46	=46
1r	.
=47	=47
1r	.
=48	=48
1r	.
=49	=49
*^	*
2r	2r	.
8r	4d	.
16r	.	.
[16A	.	u -
32A]	4r	.
32r	.	.
16eLL	.	- ら
16e	.	- あ
16dJJ	.	- あ
*v	*v	*
=50	=50
16dLL	a ちょ
16d'J	o t
8eJ	- と
8fL	o だ
16gL	a け
16gJJ	e ん
8.aL	n な
[16dJk	a ら
32dKLL]	.
16.dJ	a m
8aJ	n む
=51	=51
8aL	u t
8dJ	- ちゃ
8aL	a だ
16dL	a あ
16d'JJ	a t
8aL	- て
16b-L	e し
[16aJJ	i ちゃ
16aLL]	.
16f	a い
16f'	i t
[16dJJ	- た
=52	=52
32dKLL]	.
16.d	i sh
48gL	- しぇ
[48b-JJ	e_hh
12b-J_	.
8b-L]	.
16dL	- こ
16dJJ	o の
16dLL	o よ
16d	o の
16c	o す
[16dJJ	u べ
32dKLL]	.
16.e'	e t
16d	- て
16dJJ	e う
=53	=53
8.d'L	u ば
[16eJk	- ちゃ
8eL]	.
8dJ	a く
8.eL	u ら
16g'Jk	a -
8dL	- あ
8d'J	i hh
=54	=54
8dL	- と
8e	o わ
8f	a い
8gJ	i え
8.aL	e か
16dJk	a た
8dL	a t
[8aJ	- て
=55	=55
8aL]	.
16dL	e ば
16d'JJ	a k
8aL	- か
8dJ	a じゃ
8aL	a ど
16b-L	o し
[16aJJ	i よ
16aLL]	.
16f	o も
16f	o ん
[16dJJ	n な
=56	=56
32dKLL]	.
16.d	i sh
48gL	- しぇ
[48b-JJ	e_hh
12b-J_	.
8b-L]	.
16dL	- ご
16dJJ	o び
16dKL	i は
8d'	a ね
[16dJk	- て
8dL]	.
8d'J	e hh
=57	=57
8fL	- は
16dL	a い
[16fJJ	i ふぁ
16fLL]	.
16a	- ね
16a	e ね
16aJJ	e ね
8.aL	e ね
[16aJk	e す
16aKL]	.
8a	u こ
16fJk	o し
=58	=58
8a'L	i わ
8fJ	- こ
8fL	o ち
16fL	i む
16dJJ	u い
8fL	i た
16aL	a ら
[16dJJ	a ど
16dLL]	.
16f	- き
16f	i ま
16fJJ	a ぐ
=59	=59
8f'L	u れ
8f'J	- に
16fLL	- は
16f	a ま
16f	a ら
16dJJ	a せ
16fLL	e た
16f	a い
16d	i だ
16aJJ	a け
16aLL	e -
16d	- で
16d	e も
16dJJ	o う
=60	=60
8d'L	u ば
8a'J	- い
8B-L	- た
16eL	i -
16dJJ	- ふ
8fL	u る
16aL	u わ
16a'JJ	a せ
8cL	- た
8fJ	i_hh
=61	=61
8dL	- め
16dL	e み
16dJJ	i み
16dLL	i き
16f	i み
16d	i の
16dJJ	o も
16ccKL	o え
8a	e る
[16fJk	- は
8f]	.
8r	.
=62	=62
4r	.
12gL	- だ
12f	a れ
12d'J	e も
12gL	- が
12f	a う
12dJ	u ら
12gL	a や
12f	a む
12d'J	u きょ
=63	=63
*^	*
2r	12gL	.
.	24fL	i い
.	24fJ	i ん
.	12dJ	n の
.	24g'LL	o ちゅ
.	24gJ	u ら
.	12f	a く
.	12dJ	u と
4r	12gL	.
.	12f	i り
.	12dJ	i く
4g	8r	u で
.	16r	.
.	32r	.
.	32d	e み
*v	*v	*
=64	=64
8g'L	i せ
16dL	- て
16dJJ	e い
16gLL	i く
16g	u か
16d	a ら
16dJJ	a り
16gLL	i て
16gJ	e い
8dJ	i く
8.gL	u わ
16g'Jk	a し
=65	=65
16aLL	- な
16aJ	a い
8ccJ	i で
8r	.
8d	- だ
8aL	a か
8g	a ら
8f	a こ
8dJ	o の
=66	=66
8ddL	o ま
[8ddJ	a ま
16ddKL]	.
8.dd'J	a_hh
8r	.
8ddL	- き
8dd	i み
8ccJ	i お
=67	=67
8ccL	o つ
8cc'	u -
8b-	- れ
8b-'J	e t
8aL	- て
8g	e の
8f	o ぞ
8dJ	o む
=68	=68
8ddL	u な
[8ddJ	a ら
16ddKL]	.
8.dd'J	a_hh
4r	.
8dL	- ど
[8dJ	o こ
=69	=69
8dL]	.
8fJ	o え
4d	e で
8aL	e も
8gJ	o う
16fLL	u え
16f	n ん
16d	n だ
16dJJ	a い
=70	=70
8ddL	i わ
[8ddJ	a な
16ddKL]	.
8.dd'J	a_hh
8r	.
8ddL	- な
8dd	a い
8ccJ	i も
=71	=71
8ccL	o の
8cc'J	o -
4ff	- ね
8eeL	e だ
8cc	a る
8g	u な
[8aJ	a ら
=72	=72
8aL]	.
8a'J	a -
32.ccLLL	- け
[64ccK	e k
32ccJJJ]	.
32r	.
[8a	- こ
8aL]	.
8a'J	o -
32.ccLLL	- け
[64ccK	e k
32ccJJJ]	.
32r	.
[8a	- こ
=73	=73
8aL]	.
8a'J	o -
4r	.
8r	.
8aL	- は
8a	a や
8aJ	a く
=74	=74
4a	u よ
8f'L	o る
8aJ	- よ
16aLL	o あ
16cc'	a k
16f	- け
[16dJJ	e て
8dL]	.
8dJ	e_hh
=75	=75
16aKL	- あ
8.a'J	a さ
16gKL	- や
8.g'J	a け
16fKL	- に
8.f'J	i ち
4d	- か
=76	=76
4a	a え
8aL	e hh
8aJ	- お
16aLL	o も
16a	o い
16dd	i お
[16gJJ	o も
8.g]	.
16r	.
=77	=77
16ccKL	- ね
8.cc'J	e つ
16b-KL	- りょ
8.b-'J	o うぉ
16aKL	- さ
8.a'J	a け
4a	- べ
=78	=78
8r	.
8b-L	- こ
8b-	o の
8gJ	o こ
8.eL	o え
[16cJk	e お
8cL]	.
8cJ	o き
=79	=79
8c'L	i -
8a	- け
8a	e お
8gJ	o と
8e'L	o お
16eL	- と
[16eJJ	u お
8eL]	.
8fJ	o と
=80	=80
4g	o に
8g'L	i -
[8gJ	- お
16gKL]	.
8.gJ	o ど
8b-L	o り
8aJ	i い
=81	=81
16aLL	i く
16b-J	u る
[8aJ	u え
16aKL]	.
8.a'J	e -
4a'	- あ
4a'	- わ
=82	=82
8dd	- も
4dd	o あ
8dd	a_hh
2r	.
=83	=83
2r	.
8aL	- あ
8b-	a あ
8a	- りゅ
8dJ	u う
=84	=84
8ff	u れ
4ff	e でぃ
8aa'	i -
2r	.
=85	=85
2r	.
8aL	- な
8g	a ら
8f	a こ
8dJ	o の
=86	=86
8ddL	o ま
[8ddJ	a ま
16ddKL]	.
8.dd'J	a_hh
8r	.
8ddL	- き
8dd	i み
8ccJ	i お
=87	=87
8ccL	o つ
8cc'	u -
8b-	- れ
8b-'J	e t
8aL	- て
8g	e の
8f	o ぞ
8dJ	o む
=88	=88
8ddL	u な
[8ddJ	a ら
16ddKL]	.
8.dd'J	a_hh
4r	.
8ddL	- ど
[8ccJ	o こ
=89	=89
8ccL]	.
8gJ	o ま
4d	a で
8aL	e も
8gJ	o う
16fLL	- え
16f	e ん
16d	n だ
16dJJ	a い
=90	=90
8ddL	i わ
[8ddJ	a な
16ddKL]	.
8.dd'J	a_hh
8r	.
8ddL	- ほ
8dd	o し
8ccJ	i が
=91	=91
8ccL	a あ
8cc'J	a t
4ff	- て
16ggLL	e ば
16gg'J	a k
8ccJ	- か
8gL	a り
[8aJ	i で
=92	=92
8aL]	.
8a'J	e -
32.ccLLL	- け
[64ccK	e k
32ccJJJ]	.
32r	.
[8a	- こ
8aL]	.
8a'J	o -
32.ccLLL	- け
[64ccK	e k
32ccJJJ]	.
32r	.
[8a	- こ
=93	=93
8aL]	.
8a'J	o -
8r	.
16fLL	- も
16fJJ	o し
8fL	i か
8g	a な
8a	a う
8fJ	u な
=94	=94
4f	a ら
8f'L	a -
16fL	- こ
16fJJ	o の
8fL	o さ
8ccJ	a き
4cc	i の
=95	=95
8ee'L	o -
8f	- せ
8f	e か
8ccJ	a い
8ccL	i お
8ee'J	o -
16dLL	- し
16dJ	i り
[8ddJ	i た
=96	=96
8ddL]	.
8d	a あ
8dd	a あ
8dJ	a あ
[8ddL	a あ
32ddKL]	.
16.dd'JJ	a い
16dLL	- い
16dJ	i き
[8ddJ	i た
=97	=97
8ddL]	.
8d	a あ
8dd	a あ
[8dJ	a あ
16dLL]	.
16d	i -
*clefF4	*
16A-X	- rre
32A-L	e でぃ
32A-JJJ	i す
16AnKL	u て
8A-X	e でぃ
[16A-Jk	i_hh
=98	=98
4A-]	.
4r	.
2r	.
==	==
*-	*-
